images/renFIL.svg

<svg height="250" viewBox="0 0 250 250" width="250" xmlns="http://www.w3.org/2000/svg" xmlns:xlink="http://www.w3.org/1999/xlink"><filter id="a" height="100%" width="100%" x="0%" y="0%"><feColorMatrix in="SourceGraphic" type="matrix" values="0 0 0 0 1 0 0 0 0 1 0 0 0 0 1 0 0 0 1 0"/></filter><mask id="b"><g filter="url(#a)"><image height="250" width="250" xlink:href="data:image/png;base64,iVBORw0KGgoAAAANSUhEUgAAAPoAAAD6CAIAAAAHjs1qAAAABmJLR0QA/wD/AP+gvaeTAAAAzUlEQVR4nO3BAQ0AAADCoPdPbQ43oAAAAAAAAAAAAAAAAAAAAAAAAAAAAAAAAAAAAAAAAAAAAAAAAAAAAAAAAAAAAAAAAAAAAAAAAAAAAAAAAAAAAAAAAAAAAAAAAAAAAAAAAAAAAAAAAAAAAAAAAAAAAAAAAAAAAAAAAAAAAAAAAAAAAAAAAAAAAAAAAAAAAAAAAAAAAAAAAAAAAAAAAAAAAAAAAAAAAAAAAAAAAAAAAAAAAAAAAAAAAAAAAAAAAAAAAAAAAAAAAACATwPdhAABXx4NZAAAAABJRU5ErkJggg=="/></g></mask><clipPath id="c"><path d="m0 0h250v250h-250z"/></clipPath><g clip-path="url(#c)" mask="url(#b)"><path d="m125 250c-68.75 0-125-56.25-125-125.625.625-68.75 56.25-125 125.625-124.375 68.75.625 124.375 56.25 124.375 126.25-.625 68.125-56.25 123.75-125 123.75" fill="#6d6e71" fill-rule="evenodd"/></g><path d="m136.875 110-3.75 20 35.625 5-2.5 9.375-35-5c-2.5 8.125-3.75 16.875-6.875 24.375-3.125 8.75-6.25 17.5-10 25.625-5 10.625-13.75 18.125-25.625 20-6.875 1.25-14.375.625-20-3.75-1.875-1.25-3.75-3.75-3.75-5.625 0-2.5 1.25-5.625 3.125-6.875 1.25-.625 4.375 0 6.25.625 1.875 1.875 3.75 4.375 5 6.875 3.75 5 8.75 5.625 13.75 1.875 5.625-5 8.75-11.875 10.625-18.75 3.75-15 7.5-29.375 10.625-44.375v-2.5l-33.125-5 1.25-9.375 34.375 5 4.375-19.375-35.625-5.625 1.25-10 36.875 5c1.25-3.75 1.875-6.875 3.125-10 3.125-11.25 6.25-22.5 13.75-32.5s16.25-16.25 29.375-15.625c5.625 0 11.25 1.875 15 6.25.625.625 1.875 1.875 1.875 3.125 0 2.5 0 5.625-1.875 7.5-2.5 1.875-5.625 1.25-8.125-1.25-1.875-1.875-3.125-3.75-5-5.625-3.75-5-9.375-5.625-13.75-1.25-3.125 3.125-6.25 7.5-8.125 11.875-4.375 13.125-7.5 26.875-11.875 40.625l34.375 5-2.5 9.375z" fill="#fff" fill-rule="evenodd"/></svg>

<svg xmlns="http://www.w3.org/2000/svg" xmlns:xlink="http://www.w3.org/1999/xlink" width="250px" height="250px" viewBox="0 0 250 250" version="1.1">
<defs>
<filter id="alpha" filterUnits="objectBoundingBox" x="0%" y="0%" width="100%" height="100%">
  <feColorMatrix type="matrix" in="SourceGraphic" values="0 0 0 0 1 0 0 0 0 1 0 0 0 0 1 0 0 0 1 0"/>
</filter>
<image id="image13" width="250" height="250" xlink:href="data:image/png;base64,iVBORw0KGgoAAAANSUhEUgAAAPoAAAD6CAIAAAAHjs1qAAAABmJLR0QA/wD/AP+gvaeTAAAAzUlEQVR4nO3BAQ0AAADCoPdPbQ43oAAAAAAAAAAAAAAAAAAAAAAAAAAAAAAAAAAAAAAAAAAAAAAAAAAAAAAAAAAAAAAAAAAAAAAAAAAAAAAAAAAAAAAAAAAAAAAAAAAAAAAAAAAAAAAAAAAAAAAAAAAAAAAAAAAAAAAAAAAAAAAAAAAAAAAAAAAAAAAAAAAAAAAAAAAAAAAAAAAAAAAAAAAAAAAAAAAAAAAAAAAAAAAAAAAAAAAAAAAAAAAAAAAAAAAAAAAAAAAAAACATwPdhAABXx4NZAAAAABJRU5ErkJggg=="/>
<mask id="mask0">
  <g filter="url(#alpha)">
<use xlink:href="#image13"/>
  </g>
</mask>
<clipPath id="clip1">
  <rect x="0" y="0" width="250" height="250"/>
</clipPath>
<g id="surface12" clip-path="url(#clip1)">
<path style=" stroke:none;fill-rule:evenodd;fill:rgb(42.745098%,43.137255%,44.313726%);fill-opacity:1;" d="M 125 250 C 56.25 250 0 193.75 0 124.375 C 0.625 55.625 56.25 -0.625 125.625 0 C 194.375 0.625 250 56.25 250 126.25 C 249.375 194.375 193.75 250 125 250 "/>
</g>
</defs>
<g id="surface1">
<use xlink:href="#surface12" mask="url(#mask0)"/>
<path style=" stroke:none;fill-rule:evenodd;fill:rgb(100%,100%,100%);fill-opacity:1;" d="M 136.875 110 L 133.125 130 L 168.75 135 L 166.25 144.375 L 131.25 139.375 C 128.75 147.5 127.5 156.25 124.375 163.75 C 121.25 172.5 118.125 181.25 114.375 189.375 C 109.375 200 100.625 207.5 88.75 209.375 C 81.875 210.625 74.375 210 68.75 205.625 C 66.875 204.375 65 201.875 65 200 C 65 197.5 66.25 194.375 68.125 193.125 C 69.375 192.5 72.5 193.125 74.375 193.75 C 76.25 195.625 78.125 198.125 79.375 200.625 C 83.125 205.625 88.125 206.25 93.125 202.5 C 98.75 197.5 101.875 190.625 103.75 183.75 C 107.5 168.75 111.25 154.375 114.375 139.375 L 114.375 136.875 L 81.25 131.875 L 82.5 122.5 L 116.875 127.5 L 121.25 108.125 L 85.625 102.5 L 86.875 92.5 L 123.75 97.5 C 125 93.75 125.625 90.625 126.875 87.5 C 130 76.25 133.125 65 140.625 55 C 148.125 45 156.875 38.75 170 39.375 C 175.625 39.375 181.25 41.25 185 45.625 C 185.625 46.25 186.875 47.5 186.875 48.75 C 186.875 51.25 186.875 54.375 185 56.25 C 182.5 58.125 179.375 57.5 176.875 55 C 175 53.125 173.75 51.25 171.875 49.375 C 168.125 44.375 162.5 43.75 158.125 48.125 C 155 51.25 151.875 55.625 150 60 C 145.625 73.125 142.5 86.875 138.125 100.625 L 172.5 105.625 L 170 115 L 136.875 110 "/>
</g>
</svg>
